X: 34674
T: Road To Corofin, The
R: jig
M: 6/8
K: Gmajor
g2 e|:"G"dBG GFG|"D"AFD D2 D|"C"EFG "D7"ABc|"G"BGB "D7"ABc|
"G"dBG GFG|"D"AFD D2 D|"C"EFG "D"AFD|1 "G"G3 G2 g:|2 "G"G3- G Bc||
|:"G"dzd dBd|"C"gfg "G"dBG|"C"cdc "G"BcB|"A7"ABG "D"FED|
"G"ded dBd|"C"gfe "G"dBG|"A7"EFG "D"AFD|1 "G"G3- G Bc:|2 "G"G2 z||

